images/icons/youtube.svg

<svg width="72" height="64" viewBox="0 0 72 64" fill="none" xmlns="http://www.w3.org/2000/svg">
<path d="M68.7068 15.5104C67.9217 12.5541 65.6084 10.2259 62.6713 9.43575C57.3475 8 35.9999 8 35.9999 8C35.9999 8 14.6524 8 9.32853 9.43575C6.39141 10.226 4.07816 12.5541 3.29303 15.5104C1.86653 20.8687 1.86653 32.0485 1.86653 32.0485C1.86653 32.0485 1.86653 43.2282 3.29303 48.5866C4.07816 51.5429 6.39141 53.7741 9.32853 54.5643C14.6524 56 35.9999 56 35.9999 56C35.9999 56 57.3474 56 62.6713 54.5643C65.6084 53.7741 67.9217 51.5429 68.7068 48.5866C70.1333 43.2282 70.1333 32.0485 70.1333 32.0485C70.1333 32.0485 70.1333 20.8687 68.7068 15.5104ZM29.018 42.1989V21.8981L46.8604 32.0488L29.018 42.1989Z" fill="black"/>
</svg>

<svg width="72" height="64" viewBox="0 0 72 64" fill="none" xmlns="http://www.w3.org/2000/svg"><path d="M68.707 15.51a8.578 8.578 0 0 0-6.036-6.074C57.347 8 36 8 36 8S14.652 8 9.329 9.436a8.578 8.578 0 0 0-6.036 6.074C1.867 20.87 1.867 32.048 1.867 32.048s0 11.18 1.426 16.539c.785 2.956 3.098 5.187 6.036 5.977C14.652 56 35.999 56 35.999 56s21.348 0 26.672-1.436c2.937-.79 5.25-3.021 6.036-5.977 1.426-5.359 1.426-16.539 1.426-16.539s0-11.18-1.426-16.538ZM29.018 42.2v-20.3l17.842 10.15-17.842 10.15Z" fill="#000"/></svg>
